img/icon/logo.svg

<svg width="39" height="56" viewBox="0 0 39 56" fill="none" xmlns="http://www.w3.org/2000/svg">
<path d="M1.85059 42.0684H19.2909H36.7312" stroke="#7EB693" stroke-width="2" stroke-miterlimit="10"/>
<path d="M5.79102 48.5L19.291 48.5L32.791 48.5" stroke="#7EB693" stroke-width="2" stroke-miterlimit="10"/>
<path d="M18.791 1.50002L18.791 8.50002L18.791 15.5" stroke="#7EB693" stroke-width="2" stroke-miterlimit="10"/>
<path d="M18.8657 14.7842V41.2158" stroke="#7EB693" stroke-width="2" stroke-miterlimit="10"/>
<path d="M29.9254 4.55275L18.8657 15.637" stroke="#7EB693" stroke-width="2" stroke-miterlimit="10"/>
<path d="M34.1792 8.81593L18.8657 24.1633" stroke="#7EB693" stroke-width="2" stroke-miterlimit="10"/>
<path d="M36.7314 15.6367L18.8657 32.6894" stroke="#7EB693" stroke-width="2" stroke-miterlimit="10"/>
<path d="M37.5821 23.3106L18.8657 42.0685" stroke="#7EB693" stroke-width="2" stroke-miterlimit="10"/>
<path d="M37.582 31.8369L27.373 42.0685" stroke="#7EB693" stroke-width="2" stroke-miterlimit="10"/>
<path d="M1 31.8369L11.209 42.0685" stroke="#7EB693" stroke-width="2" stroke-miterlimit="10"/>
<path d="M8.65674 4.55275L18.8657 15.637" stroke="#7EB693" stroke-width="2" stroke-miterlimit="10"/>
<path d="M4.40283 8.81593L18.8655 24.1633" stroke="#7EB693" stroke-width="2" stroke-miterlimit="10"/>
<path d="M1.85059 14.7842L18.8655 32.6895" stroke="#7EB693" stroke-width="2" stroke-miterlimit="10"/>
<path d="M1 22.458L18.8657 41.2159" stroke="#7EB693" stroke-width="2" stroke-miterlimit="10"/>
<path d="M19.291 54.8579C9.19019 54.8579 1 46.4056 1 35.9772V20.0228C1 9.5963 9.19019 1.14211 19.291 1.14211C29.3937 1.14211 37.5821 9.5963 37.5821 20.0228V35.9772C37.5839 46.4056 29.3937 54.8579 19.291 54.8579Z" stroke="#7EB693" stroke-width="2" stroke-miterlimit="10"/>
</svg>

<svg width="39" height="56" fill="none" xmlns="http://www.w3.org/2000/svg"><path d="M1.85 42.068h34.881M5.791 48.5h27m-14-47v14m.075-.716v26.432M29.925 4.553l-11.06 11.084M34.18 8.816L18.865 24.163m17.866-8.526L18.866 32.689m18.716-9.379L18.866 42.07m18.716-10.233L27.373 42.069M1 31.837l10.209 10.232M8.657 4.553l10.209 11.084M4.403 8.816l14.463 15.347M1.85 14.784L18.866 32.69M1 22.458l17.866 18.758m.425 13.642C9.191 54.858 1 46.406 1 35.978V20.022C1 9.596 9.19 1.143 19.291 1.143c10.103 0 18.291 8.453 18.291 18.88v15.954c.002 10.429-8.188 18.88-18.291 18.88z" stroke="#7EB693" stroke-width="2" stroke-miterlimit="10"/></svg>
